images/icon_tumblr.svg

<svg viewBox="0 0 106 172" xmlns="http://www.w3.org/2000/svg" xml:space="preserve" style="fill-rule:evenodd;clip-rule:evenodd;stroke-linejoin:round;stroke-miterlimit:2"><path d="M58.772 0v43.261H99.38v26.876H58.772v43.904c0 9.921.515 16.284 1.565 19.104 1.057 2.806 3.001 5.056 5.873 6.746 3.79 2.274 8.109 3.415 12.991 3.415 8.666 0 17.282-2.834 25.85-8.461v26.998c-7.309 3.45-13.94 5.866-19.865 7.257-5.922 1.384-12.345 2.076-19.233 2.076-7.817 0-14.73-.984-20.746-2.966-6.019-1.982-11.144-4.802-15.394-8.446q-6.365-5.485-8.828-11.68c-1.635-4.107-2.455-10.078-2.455-17.902V70.137H-.397V45.904c6.728-2.174 12.497-5.31 17.275-9.382 4.805-4.082 8.651-8.978 11.544-14.699C31.326 16.103 33.325 8.836 34.421 0z" style="fill:#f0f0f0;fill-rule:nonzero"/></svg>

<?xml version="1.0" encoding="UTF-8" standalone="no"?>
<!DOCTYPE svg PUBLIC "-//W3C//DTD SVG 1.1//EN" "http://www.w3.org/Graphics/SVG/1.1/DTD/svg11.dtd">
<svg width="100%" height="100%" viewBox="0 0 106 172" version="1.1" xmlns="http://www.w3.org/2000/svg" xmlns:xlink="http://www.w3.org/1999/xlink" xml:space="preserve" xmlns:serif="http://www.serif.com/" style="fill-rule:evenodd;clip-rule:evenodd;stroke-linejoin:round;stroke-miterlimit:2;">
    <path id="Tumblr" d="M58.772,0L58.772,43.261L99.38,43.261L99.38,70.137L58.772,70.137L58.772,114.041C58.772,123.962 59.287,130.325 60.337,133.145C61.394,135.951 63.338,138.201 66.21,139.891C70,142.165 74.319,143.306 79.201,143.306C87.867,143.306 96.483,140.472 105.051,134.845L105.051,161.843C97.742,165.293 91.111,167.709 85.186,169.1C79.264,170.484 72.841,171.176 65.953,171.176C58.136,171.176 51.223,170.192 45.207,168.21C39.188,166.228 34.063,163.408 29.813,159.764C25.571,156.106 22.626,152.215 20.985,148.084C19.35,143.977 18.53,138.006 18.53,130.182L18.53,70.137L-0.397,70.137L-0.397,45.904C6.331,43.73 12.1,40.594 16.878,36.522C21.683,32.44 25.529,27.544 28.422,21.823C31.326,16.103 33.325,8.836 34.421,-0L58.772,-0Z" style="fill:rgb(240,240,240);fill-rule:nonzero;"/>
</svg>
